svgs/sharp-light/image-user.svg

<svg xmlns="http://www.w3.org/2000/svg" viewBox="0 0 512 512"><!--! Font Awesome Pro 6.4.0 by @fontawesome - https://fontawesome.com License - https://fontawesome.com/license (Commercial License) Copyright 2023 Fonticons, Inc. --><path d="M32 64V448H480V64H32zM0 32H32 480h32V64 448v32H480 32 0V448 64 32zM288 192a32 32 0 1 0 -64 0 32 32 0 1 0 64 0zM188.4 352H323.6l-10.7-32H199.1l-10.7 32zM336 288l21.3 64L368 384H334.3 177.7 144l10.7-32L176 288h80 80zM256 128a64 64 0 1 1 0 128 64 64 0 1 1 0-128z"/></svg>

<svg xmlns="http://www.w3.org/2000/svg" viewBox="0 0 512 512"><!--! Font Awesome Pro 6.6.0 by @fontawesome - https://fontawesome.com License - https://fontawesome.com/license (Commercial License) Copyright 2024 Fonticons, Inc. --><path d="M32 64l0 384 448 0 0-384L32 64zM0 32l32 0 448 0 32 0 0 32 0 384 0 32-32 0L32 480 0 480l0-32L0 64 0 32zM288 192a32 32 0 1 0 -64 0 32 32 0 1 0 64 0zM188.4 352l135.2 0-10.7-32-113.9 0-10.7 32zM336 288l21.3 64L368 384l-33.7 0-156.5 0L144 384l10.7-32L176 288l80 0 80 0zM256 128a64 64 0 1 1 0 128 64 64 0 1 1 0-128z"/></svg>
